resources/svg/major-fraud-protect-unprotected.svg

<svg xmlns="http://www.w3.org/2000/svg" viewBox="0 0 20 20" fill="currentColor"><path fill-rule="evenodd" d="M1.49335 2.87876C3.75731 2.56215 6.75711 1.61569 9.12801 0.232947C9.65955 -0.0770602 10.322 -0.0768069 10.8561 0.228675C13.2245 1.58316 16.3581 2.51974 18.5061 2.85685C19.3242 2.98523 19.997 3.66653 19.9975 4.49494L19.9977 4.99602C20.0282 11.0387 19.5177 16.3279 10.5253 19.8994C10.1875 20.0336 9.80128 20.0335 9.46347 19.8993C0.478494 16.3278 -0.0292758 11.0386 0.00115097 4.99602L1.6541e-05 4.49924C-0.00187902 3.66915 0.67158 2.99369 1.49335 2.87876ZM9.29289 5.29289C9.10536 5.48043 9 5.73478 9 6V10C9 10.2652 9.10536 10.5196 9.29289 10.7071C9.48043 10.8946 9.73478 11 10 11C10.2652 11 10.5196 10.8946 10.7071 10.7071C10.8946 10.5196 11 10.2652 11 10V6C11 5.73478 10.8946 5.48043 10.7071 5.29289C10.5196 5.10536 10.2652 5 10 5C9.73478 5 9.48043 5.10536 9.29289 5.29289ZM9.29289 13.2929C9.10536 13.4804 9 13.7348 9 14C9 14.2652 9.10536 14.5196 9.29289 14.7071C9.48043 14.8946 9.73478 15 10 15C10.2652 15 10.5196 14.8946 10.7071 14.7071C10.8946 14.5196 11 14.2652 11 14C11 13.7348 10.8946 13.4804 10.7071 13.2929C10.5196 13.1054 10.2652 13 10 13C9.73478 13 9.48043 13.1054 9.29289 13.2929Z" fill="#5C5F62"/></svg>

<svg xmlns="http://www.w3.org/2000/svg" viewBox="0 0 20 20" fill="currentColor"><path fill-rule="evenodd" d="M1.493 2.879c2.264-.317 5.264-1.263 7.635-2.646a1.733 1.733 0 0 1 1.728-.004c2.369 1.354 5.502 2.29 7.65 2.628.818.128 1.491.81 1.491 1.638v.501c.031 6.043-.48 11.332-9.472 14.903a1.45 1.45 0 0 1-1.062 0c-8.985-3.571-9.492-8.86-9.462-14.903l-.001-.497c-.002-.83.672-1.505 1.493-1.62Zm7.8 2.414a1 1 0 0 0-.293.707v4a1 1 0 1 0 2 0v-4a1 1 0 0 0-1.707-.707Zm0 8a1 1 0 1 0 1.414 1.414 1 1 0 0 0-1.414-1.414Z"/></svg>
